images/team__background.svg

<svg width="1234" height="1480" fill="none" xmlns="http://www.w3.org/2000/svg"><path d="M675.079 104.367c-39.262 95.278 4.438 410.464-212.504 528.988-202.422 110.592-359.054 123.656-361.023 205.399-1.97 81.743 78.037 117.35 182.698 88.599 69.268-19.029 167.413-44.078 297.656-175.653 60.545-61.164 111.088-215.522 172.163-241.224 51.851-21.819 151.338 26.668 75.381 131.719-45.177 62.481-286.247 191.434-212.692 293.17 42.482 58.759 198.307-6.526 259.794-123.21 66.669-126.52-8.402-433.643 122.123-481.016 130.525-47.372 272.705-3.051 211.735 130.194-60.97 133.244-527.922 47.419-778.999 303.579-137.965 140.759-209.58 355.788-155.155 494.218 66.988 170.39 155.747 19.59 223.257-86.22 86.044-134.86 228.826-169.9 306.407-129.55 57.046 29.68 31.392 135.47-32.691 206.1-64.083 70.62-114.37 143.98-78.757 200.17s273.367-4.31 261.646-311.23c-11.127-291.366 81.992-324.015 153.062-396.877 71.07-72.861 248.29-630.27-80.24-611.725-328.526 18.545-575.2 91.986-625.958 280.806-50.759 188.82-88.747 231.206-216.673 266.612C58.383 712.623-3.201 583.641 31.328 493.061c34.528-90.581 84.726-32.4 175.204-87.191 77.352-46.842 81.562-89.782 143.242-184.186C414.538 122.56 554.97 47.813 638.946 14.554" stroke="#343434" stroke-width="4"/></svg>

<svg width="1234" height="1480" viewBox="0 0 1234 1480" fill="none" xmlns="http://www.w3.org/2000/svg">
<path d="M675.079 104.367C635.817 199.645 679.517 514.831 462.575 633.355C260.153 743.947 103.521 757.011 101.552 838.754C99.582 920.497 179.589 956.104 284.25 927.353C353.518 908.324 451.663 883.275 581.906 751.7C642.451 690.536 692.994 536.178 754.069 510.476C805.92 488.657 905.407 537.144 829.45 642.195C784.273 704.676 543.203 833.629 616.758 935.365C659.24 994.124 815.065 928.839 876.552 812.155C943.221 685.635 868.15 378.512 998.675 331.139C1129.2 283.767 1271.38 328.088 1210.41 461.333C1149.44 594.577 682.488 508.752 431.411 764.912C293.446 905.671 221.831 1120.7 276.256 1259.13C343.244 1429.52 432.003 1278.72 499.513 1172.91C585.557 1038.05 728.339 1003.01 805.92 1043.36C862.966 1073.04 837.312 1178.83 773.229 1249.46C709.146 1320.08 658.859 1393.44 694.472 1449.63C730.085 1505.82 967.839 1445.32 956.118 1138.4C944.991 847.034 1038.11 814.385 1109.18 741.523C1180.25 668.662 1357.47 111.253 1028.94 129.798C700.414 148.343 453.74 221.784 402.982 410.604C352.223 599.424 314.235 641.81 186.309 677.216C58.3827 712.623 -3.20106 583.641 31.3275 493.061C65.8561 402.48 116.054 460.661 206.532 405.87C283.884 359.028 288.094 316.088 349.774 221.684C414.538 122.56 554.97 47.8127 638.946 14.5542" stroke="#343434" stroke-width="4"/>
</svg>
